X:1
T:Title
%%score { ( 1 3 ) | 2 }
L:1/8
Q:1/4=114
M:6/4
K:Bb
V:1 treble nm="Grand Piano"
V:3 treble 
V:2 bass 
V:1
 [DF]2 [B,D]2 [CE]2 [DF]2 [DB]2 [Ec]2 | [Fd]2 [DB]2 [Ge]2 [Fd]6 | d2 c2 =B2 c2 d2 c2 | %3
w: Alfred~H.~Ackley * * * * *|||
 [DB]2 [FA]2 [EG]2 [DF]6 | [DF]2 [B,D]2 [CE]2 [DF]2 [DB]2 [Ec]2 | [Fd]2 [DB]2 [Ge]2 [Fd]6 | %6
w: |||
 c2 d2 c2 [=EB]2 [EA]2 [EG]2 | c6 F6 | [Fd]2 [=E_d]2 [F=d]2 [Ge]4 [Fd]2 | %9
w: |||
 [=Ed]2 [Ec]2 [EB]2 z4 B,2 | c2 =B2 c2 d4 c2 | [Dc]2 [DB]2 [EG]2 [DF]6 | %12
w: |||
 [DF]2 [B,D]2 [CE]2 [DF]2 [FB]2 c2 | d2 e2 f2 [Ge]6 |[M:13/8] [EG]2 [FA]2 [GB]2 d2 F3 d2 | %15
w: |||
[M:6/4] e2 d2 c2 [DB]6 |] %16
w: |
V:2
 [B,,B,]2 [B,,F,]2 [B,,F,]2 [B,,B,]2 [B,,B,]2 [B,,B,]2 | [B,,B,]2 [B,,B,]2 [B,,B,]2 [B,,B,]6 | %2
 [F,B,F]2 [F,A,E]2 [F,_A,D]2 [F,=A,E]2 [F,A,F]2 [F,E]2 | [B,,F,]2 [B,,F,]2 [B,,G,]2 [B,,B,]6 | %4
 [B,,B,]2 [B,,F,]2 [B,,F,]2 [B,,B,]2 [B,,B,]2 [B,,B,]2 | [B,,B,]2 [B,,B,]2 [B,,B,]2 [B,,B,]6 | %6
 [F,A,F]2 [F,B,F]2 [F,A,F]2 [C,G,]2 [C,C]2 [C,B,]2 | [F,A,E]12 | %8
 [B,,B,]2 [B,,B,]2 [B,,B,]2 [B,,B,]4 [B,,B,]2 | [C,B,]2 [C,B,]2 [C,G,]2 .[C,C]6 | %10
 [F,A,E]2 [F,_A,D]2 [F,=A,E]2 [F,A,F]4 [F,E]2 | [B,,F,]2 [B,,F,]2 [B,,G,]2 [B,,B,]6 | %12
 [B,,B,]2 [B,,F,]2 [B,,F,]2 [B,,B,]2 [D,B,]2[K:treble] [F,A,F]2 | %13
 [B,F]2 [B,G]2 [B,_A]2[K:bass] [E,B,]6 | %14
[M:13/8] [E,B,]2 [E,B,]2 [E,B,]2 [F,B,F]2 [F,B,D]3 [F,B,F]2 | %15
[M:6/4] [F,CF]2 [F,B,F]2 [F,E]2 [B,,F,]6 |] %16
V:3
 x12 | x12 | x12 | x12 | x12 | x12 | x12 | x12 | x12 | z6 [=EG]6 | x12 | x12 | x12 | x12 | %14
[M:13/8] x13 |[M:6/4] x12 |] %16

